src/images/linkedin_grey.svg

<svg width="64" height="64" viewBox="0 0 64 64" fill="none" xmlns="http://www.w3.org/2000/svg">
<path d="M32 0C14.328 0 0 14.328 0 32C0 49.672 14.328 64 32 64C49.672 64 64 49.672 64 32C64 14.328 49.672 0 32 0ZM26.6667 42.6667H21.3333V26.6667H26.6667V42.6667ZM24 24.2907C22.3813 24.2907 21.0667 22.968 21.0667 21.3333C21.0667 19.7013 22.3787 18.376 24 18.376C25.6213 18.376 26.9333 19.7013 26.9333 21.3333C26.9333 22.968 25.6187 24.2907 24 24.2907ZM45.3333 42.6667H40.0053V35.0373C40.0053 30.0213 34.6667 30.4453 34.6667 35.0373V42.6667H29.3333V26.6667H34.6667V29.5813C36.992 25.272 45.3333 24.952 45.3333 33.7093V42.6667Z" fill="#F0F0F2"/>
</svg>

<svg fill="none" xmlns="http://www.w3.org/2000/svg" viewBox="0 0 64 64"><path d="M32 0C14.328 0 0 14.328 0 32s14.328 32 32 32 32-14.328 32-32S49.672 0 32 0Zm-5.333 42.667h-5.334v-16h5.334v16ZM24 24.29c-1.619 0-2.933-1.323-2.933-2.958 0-1.632 1.312-2.957 2.933-2.957 1.621 0 2.933 1.325 2.933 2.957 0 1.635-1.314 2.958-2.933 2.958Zm21.333 18.376h-5.328v-7.63c0-5.016-5.338-4.592-5.338 0v7.63h-5.334v-16h5.334v2.914c2.325-4.309 10.666-4.629 10.666 4.128v8.958Z" fill="#F0F0F2"/></svg>
